; generated by Slic3r 1.3.1-dev (Build 18ddd3a36dc69d81fb9b7440498bff9e1dde8b7e) on 2023-08-12 at 20:44:47

; Print Config Notes: 
; Na primeira camada configurar a vasão para 1000%
; 
; M221 S1000
; 
; Descer gradua tivamente até 500%
; 
; M221 S200
; 
; Ao fim da primeira camada configurar a 100%
; 
; M221 S100
; 
; Printer Config Notes: 
; G90; Absolute position
; G1 F6000 X150 Y150;
; G1 F1000 x185; click
; G4 P700; segura
; G1 F6000 X150;
; 
; ;cura
; ;no notepad++ habilitar "expressão regular" 
; ;G90; nG1 F6000 X150 Y150; nG1 F1000 x185;  nG4 P700; nG1 F6000 X150;
; 
; external perimeters extrusion width = 0.40mm (2.14mm^3/s)
; perimeters extrusion width = 0.40mm (4.28mm^3/s)
; infill extrusion width = 0.40mm (5.71mm^3/s)
; solid infill extrusion width = 0.40mm (2.86mm^3/s)
; top infill extrusion width = 0.40mm (2.14mm^3/s)

G92 E0
M104 S200 ; set temperature
G28 ; home all axes
; Filament gcode

M109 S200 ; set temperature and wait for it to be reached
G21 ; set units to millimeters
G90 ; use absolute coordinates
M82 ; use absolute distances for extrusion
G92 E0
G4 P1000;
G1 Z0.100 F7800.000
G1 E-2.00000 F2400.00000
G92 E0
G1 X71.448 Y89.540 F7800.000
G1 E2.00000 F2400.00000
G1 F600.000
G1 X71.959 Y89.170 E2.00992
G1 X72.374 Y88.916 E2.01759
G1 X72.785 Y88.701 E2.02488
G1 X73.331 Y88.467 E2.03423
G1 X73.798 Y88.307 E2.04200
G1 X74.318 Y88.170 E2.05045
G1 X74.836 Y88.074 E2.05875
G1 X75.411 Y88.011 E2.06785
G1 X98.847 Y86.595 E2.43736
G1 X99.576 Y86.565 E2.44884
G1 X100.811 Y86.572 E2.46828
G1 X101.583 Y86.616 E2.48045
G1 X102.286 Y86.682 E2.49155
G1 X103.024 Y86.778 E2.50328
G1 X103.745 Y86.899 E2.51478
G1 X105.000 Y87.174 E2.53501
G1 X105.705 Y87.366 E2.54650
G1 X106.421 Y87.589 E2.55830
G1 X107.134 Y87.840 E2.57020
G1 X107.849 Y88.123 E2.58231
G1 X108.579 Y88.446 E2.59486
G1 X109.223 Y88.760 E2.60614
G1 X109.947 Y89.148 E2.61906
G1 X110.528 Y89.488 E2.62967
G1 X111.653 Y90.223 E2.65080
G1 X112.188 Y90.611 E2.66122
G1 X112.820 Y91.106 E2.67384
G1 X113.396 Y91.595 E2.68573
G1 X113.913 Y92.066 E2.69674
G1 X114.455 Y92.598 E2.70869
G1 X114.981 Y93.154 E2.72074
G1 X115.516 Y93.766 E2.73353
G1 X115.948 Y94.298 E2.74432
G1 X116.732 Y95.369 E2.76520
G1 X117.131 Y95.978 E2.77667
G1 X117.520 Y96.624 E2.78853
G1 X117.816 Y97.194 E2.79864
G1 X117.995 Y97.618 E2.80588
G1 X118.160 Y98.106 E2.81399
G1 X118.284 Y98.593 E2.82190
G1 X118.381 Y99.154 E2.83087
G1 X118.422 Y99.577 E2.83755
G1 X118.435 Y100.037 E2.84479
G1 X118.414 Y100.532 E2.85258
G1 X118.352 Y101.050 E2.86081
G1 X118.240 Y101.596 E2.86957
G1 X118.021 Y102.311 E2.88133
G1 X117.842 Y102.748 E2.88877
G1 X117.633 Y103.176 E2.89627
G1 X116.965 Y104.282 E2.91660
G1 X116.295 Y105.246 E2.93508
G1 X115.503 Y106.251 E2.95521
G1 X114.746 Y107.100 E2.97311
G1 X113.854 Y107.990 E2.99294
G1 X112.925 Y108.808 E3.01242
G1 X112.032 Y109.505 E3.03025
G1 X111.046 Y110.187 E3.04912
G1 X110.002 Y110.820 E3.06833
G1 X108.972 Y111.366 E3.08668
G1 X107.959 Y111.831 E3.10423
G1 X106.785 Y112.287 E3.12404
G1 X105.730 Y112.628 E3.14149
G1 X104.608 Y112.921 E3.15975
G1 X103.300 Y113.179 E3.18072
G1 X102.001 Y113.348 E3.20134
G1 X100.616 Y113.434 E3.22319
G1 X99.304 Y113.427 E3.24383
G1 X75.475 Y111.994 E3.61952
G1 X74.847 Y111.928 E3.62947
G1 X74.197 Y111.801 E3.63989
G1 X73.709 Y111.665 E3.64787
G1 X73.288 Y111.517 E3.65489
G1 X72.797 Y111.304 E3.66330
G1 X72.279 Y111.029 E3.67254
G1 X71.774 Y110.705 E3.68198
G1 X71.474 Y110.481 E3.68787
G1 X71.053 Y110.120 E3.69660
G1 X70.624 Y109.687 E3.70618
G1 X70.298 Y109.301 E3.71414
G1 X70.030 Y108.936 E3.72126
G1 X69.680 Y108.368 E3.73177
G1 X69.465 Y107.948 E3.73920
G1 X69.236 Y107.404 E3.74849
G1 X69.091 Y106.975 E3.75561
G1 X68.943 Y106.407 E3.76485
G1 X68.846 Y105.869 E3.77345
G1 X68.793 Y105.365 E3.78143
G1 X68.773 Y104.821 E3.78999
G1 X68.773 Y95.150 E3.94219
G1 X68.796 Y94.596 E3.95093
G1 X68.864 Y94.014 E3.96014
G1 X68.996 Y93.365 E3.97057
G1 X69.194 Y92.712 E3.98130
G1 X69.440 Y92.105 E3.99161
G1 X69.758 Y91.493 E4.00247
G1 X70.091 Y90.977 E4.01212
G1 X70.497 Y90.458 E4.02249
G1 X70.980 Y89.948 E4.03354
G1 X71.402 Y89.577 E4.04239
G1 E2.04239 F2400.00000
G92 E0
G1 X102.569 Y98.603 F7800.000
G1 E2.00000 F2400.00000
G1 F600.000
G1 X102.647 Y98.472 E2.00240
G1 X102.796 Y98.347 E2.00546
G1 X103.052 Y98.281 E2.00962
G1 X103.283 Y98.301 E2.01328
G1 X103.480 Y98.367 E2.01654
G1 X103.669 Y98.491 E2.02010
G1 X103.802 Y98.654 E2.02342
G1 X103.895 Y98.861 E2.02699
G1 X104.080 Y99.508 E2.03758
G1 X104.479 Y100.528 E2.05482
G1 X104.640 Y100.522 E2.05737
G1 X104.764 Y100.113 E2.06409
G1 X105.138 Y99.039 E2.08199
G1 X105.273 Y98.751 E2.08699
G1 X105.424 Y98.531 E2.09120
G1 X105.583 Y98.380 E2.09465
G1 X105.758 Y98.295 E2.09771
G1 X105.945 Y98.284 E2.10066
G1 X106.130 Y98.351 E2.10376
G1 X106.300 Y98.483 E2.10714
G1 X106.433 Y98.661 E2.11064
G1 X106.517 Y98.875 E2.11425
G1 X106.532 Y99.075 E2.11741
G1 X106.465 Y99.356 E2.12196
G1 X106.178 Y100.009 E2.13318
G1 X105.965 Y100.657 E2.14392
G1 X105.013 Y103.316 E2.18837
G1 X104.632 Y104.298 E2.20494
G1 X104.362 Y104.893 E2.21522
G1 X104.246 Y105.088 E2.21880
G1 X104.072 Y105.311 E2.22325
G1 X103.794 Y105.536 E2.22888
G1 X103.526 Y105.668 E2.23358
G1 X103.306 Y105.744 E2.23725
G1 X102.973 Y105.817 E2.24260
G1 X102.768 Y105.820 E2.24583
G1 X102.563 Y105.779 E2.24913
G1 X102.418 Y105.707 E2.25167
G1 X102.232 Y105.513 E2.25590
G1 X102.131 Y105.301 E2.25959
G1 X102.093 Y105.145 E2.26213
G1 X102.084 Y104.998 E2.26445
G1 X102.124 Y104.804 E2.26755
G1 X102.230 Y104.649 E2.27052
G1 X102.394 Y104.543 E2.27358
G1 X102.870 Y104.406 E2.28138
G1 X103.031 Y104.334 E2.28416
G1 X103.243 Y104.154 E2.28854
G1 X103.382 Y103.922 E2.29279
G1 X103.601 Y103.350 E2.30243
G1 X103.787 Y102.962 E2.30921
G1 X103.849 Y102.727 E2.31302
G1 X103.805 Y102.501 E2.31664
G1 X103.531 Y101.877 E2.32737
G1 X102.937 Y100.273 E2.35429
G1 X102.637 Y99.544 E2.36670
G1 X102.547 Y99.227 E2.37189
G1 X102.515 Y98.870 E2.37753
G1 X102.557 Y98.662 E2.38087
G1 X102.569 Y98.603 F7800.000
G1 X101.821 Y98.835 F7800.000
G1 F600.000
G1 X101.843 Y98.932 E2.38243
G1 X101.768 Y99.229 E2.38725
G1 X101.082 Y100.391 E2.40850
G1 X101.008 Y100.565 E2.41147
G1 X100.984 Y100.698 E2.41359
G1 X100.994 Y100.819 E2.41551
G1 X101.042 Y100.947 E2.41765
G1 X101.725 Y102.083 E2.43852
G1 X101.859 Y102.382 E2.44368
G1 X101.896 Y102.630 E2.44763
G1 X101.868 Y102.861 E2.45128
G1 X101.769 Y103.058 E2.45475
G1 X101.566 Y103.222 E2.45885
G1 X101.353 Y103.291 E2.46239
G1 X101.127 Y103.297 E2.46594
G1 X100.925 Y103.235 E2.46927
G1 X100.760 Y103.112 E2.47250
G1 X100.573 Y102.853 E2.47752
G1 X100.104 Y102.007 E2.49275
G1 X99.927 Y102.396 E2.49948
G1 X99.736 Y102.723 E2.50544
G1 X99.531 Y103.013 E2.51103
G1 X99.368 Y103.174 E2.51463
G1 X99.128 Y103.284 E2.51879
G1 X98.859 Y103.258 E2.52304
G1 X98.611 Y103.122 E2.52750
G1 X98.467 Y102.952 E2.53100
G1 X98.404 Y102.770 E2.53403
G1 X98.399 Y102.625 E2.53631
G1 X98.440 Y102.420 E2.53960
G1 X98.505 Y102.256 E2.54238
G1 X99.032 Y101.332 E2.55912
G1 X99.359 Y100.870 E2.56803
G1 X99.393 Y100.774 E2.56964
G1 X99.360 Y100.662 E2.57147
G1 X99.126 Y100.310 E2.57812
G1 X98.568 Y99.305 E2.59621
G1 X98.485 Y99.059 E2.60029
G1 X98.470 Y98.784 E2.60463
G1 X98.573 Y98.546 E2.60871
G1 X98.788 Y98.367 E2.61312
G1 X99.061 Y98.282 E2.61762
G1 X99.215 Y98.283 E2.62004
G1 X99.397 Y98.340 E2.62303
G1 X99.523 Y98.419 E2.62538
G1 X99.686 Y98.577 E2.62896
G1 X99.911 Y98.904 E2.63520
G1 X100.192 Y99.449 E2.64485
G1 X100.376 Y99.031 E2.65203
G1 X100.525 Y98.763 E2.65685
G1 X100.707 Y98.542 E2.66137
G1 X100.892 Y98.389 E2.66514
G1 X101.138 Y98.283 E2.66936
G1 X101.395 Y98.304 E2.67342
G1 X101.627 Y98.452 E2.67775
G1 X101.780 Y98.662 E2.68184
G1 X101.807 Y98.777 E2.68370
G1 X101.918 Y98.856 F7800.000
G1 E0.68370 F2400.00000
G92 E0
G1 X97.714 Y101.624 F7800.000
G1 E2.00000 F2400.00000
G1 F600.000
G1 X97.829 Y101.803 E2.00335
G1 X97.913 Y102.003 E2.00675
G1 X97.968 Y102.307 E2.01162
G1 X97.958 Y102.524 E2.01505
G1 X97.904 Y102.759 E2.01885
G1 X97.778 Y103.015 E2.02333
G1 X97.645 Y103.185 E2.02672
G1 X97.483 Y103.330 E2.03014
G1 X97.213 Y103.481 E2.03501
G1 X97.005 Y103.542 E2.03843
G1 X96.795 Y103.565 E2.04176
G1 X96.583 Y103.550 E2.04510
G1 X96.378 Y103.500 E2.04842
G1 X96.180 Y103.412 E2.05182
G1 X95.963 Y103.255 E2.05604
G1 X95.791 Y103.064 E2.06009
G1 X95.683 Y102.879 E2.06346
G1 X95.610 Y102.680 E2.06679
G1 X95.571 Y102.471 E2.07014
G1 X95.573 Y102.220 E2.07408
G1 X95.612 Y102.041 E2.07696
G1 X95.730 Y101.760 E2.08177
G1 X95.856 Y101.583 E2.08519
G1 X96.010 Y101.433 E2.08858
G1 X96.273 Y101.269 E2.09345
G1 X96.480 Y101.199 E2.09688
G1 X96.692 Y101.166 E2.10027
G1 X97.001 Y101.186 E2.10513
G1 X97.210 Y101.247 E2.10856
G1 X97.399 Y101.343 E2.11190
G1 X97.568 Y101.469 E2.11522
G1 X97.673 Y101.581 E2.11763
G1 X97.714 Y101.624 F7800.000
G1 E0.11763 F2400.00000
G92 E0
G1 X95.714 Y100.970 F7800.000
G1 E2.00000 F2400.00000
G1 F600.000
G1 X95.546 Y101.507 E2.00886
G1 X95.432 Y101.754 E2.01314
G1 X95.234 Y102.074 E2.01906
G1 X95.002 Y102.349 E2.02472
G1 X94.821 Y102.516 E2.02860
G1 X94.631 Y102.659 E2.03234
G1 X94.331 Y102.828 E2.03775
G1 X93.907 Y102.971 E2.04481
G1 X93.371 Y103.057 E2.05335
G1 X92.850 Y103.084 E2.06156
G1 X92.032 Y103.076 E2.07443
G1 X91.588 Y103.118 E2.08145
G1 X91.384 Y103.101 E2.08467
G1 X91.251 Y103.051 E2.08691
G1 X91.109 Y102.936 E2.08979
G1 X91.002 Y102.761 E2.09301
G1 X90.936 Y102.538 E2.09668
G1 X90.912 Y102.267 E2.10095
G1 X90.930 Y101.665 E2.11043
G1 X90.934 Y98.050 E2.16732
G1 X90.892 Y97.426 E2.17717
G1 X90.966 Y97.157 E2.18156
G1 X91.155 Y96.972 E2.18572
G1 X91.433 Y96.865 E2.19041
G1 X91.728 Y96.834 E2.19508
G1 X93.336 Y96.870 E2.22038
G1 X93.787 Y96.929 E2.22754
G1 X94.255 Y97.052 E2.23516
G1 X94.631 Y97.235 E2.24174
G1 X94.971 Y97.507 E2.24859
G1 X95.240 Y97.820 E2.25510
G1 X95.488 Y98.243 E2.26281
G1 X95.631 Y98.607 E2.26897
G1 X95.706 Y98.875 E2.27335
G1 X95.801 Y99.474 E2.28289
G1 X95.821 Y99.980 E2.29086
G1 X95.807 Y100.333 E2.29642
G1 X95.723 Y100.911 E2.30560
G1 X96.004 Y101.246 F7800.000
G1 E0.30560 F2400.00000
G92 E0
G1 X89.909 Y101.128 F7800.000
G1 E2.00000 F2400.00000
G1 F600.000
G1 X89.888 Y101.531 E2.00636
G1 X89.771 Y101.951 E2.01322
G1 X89.620 Y102.266 E2.01872
G1 X89.356 Y102.623 E2.02571
G1 X89.030 Y102.902 E2.03246
G1 X88.648 Y103.105 E2.03927
G1 X88.232 Y103.218 E2.04605
G1 X87.859 Y103.255 E2.05195
G1 X87.449 Y103.249 E2.05840
G1 X87.204 Y103.220 E2.06229
G1 X86.887 Y103.149 E2.06740
G1 X86.600 Y103.040 E2.07222
G1 X86.379 Y102.906 E2.07629
G1 X86.194 Y102.726 E2.08036
G1 X86.054 Y102.468 E2.08498
G1 X86.001 Y102.223 E2.08893
G1 X86.033 Y101.921 E2.09371
G1 X86.178 Y101.681 E2.09812
G1 X86.409 Y101.536 E2.10241
G1 X86.707 Y101.483 E2.10718
G1 X86.952 Y101.511 E2.11105
G1 X87.151 Y101.584 E2.11438
G1 X87.581 Y101.892 E2.12271
G1 X87.687 Y101.948 E2.12461
G1 X87.828 Y101.968 E2.12685
G1 X87.951 Y101.947 E2.12880
G1 X88.148 Y101.852 E2.13224
G1 X88.262 Y101.751 E2.13464
G1 X88.349 Y101.626 E2.13704
G1 X88.404 Y101.482 E2.13946
G1 X88.425 Y101.268 E2.14285
G1 X88.380 Y101.057 E2.14625
G1 X88.258 Y100.829 E2.15031
G1 X88.120 Y100.670 E2.15363
G1 X87.952 Y100.537 E2.15699
G1 X87.763 Y100.441 E2.16033
G1 X87.627 Y100.397 E2.16258
G1 X87.133 Y100.306 E2.17048
G1 X86.935 Y100.231 E2.17382
G1 X86.758 Y100.063 E2.17766
G1 X86.689 Y99.867 E2.18093
G1 X86.685 Y99.647 E2.18439
G1 X86.742 Y99.421 E2.18806
G1 X86.817 Y99.269 E2.19072
G1 X86.962 Y99.101 E2.19421
G1 X87.201 Y98.984 E2.19841
G1 X87.656 Y98.906 E2.20566
G1 X87.807 Y98.855 E2.20818
G1 X87.933 Y98.775 E2.21054
G1 X88.036 Y98.666 E2.21290
G1 X88.103 Y98.548 E2.21504
G1 X88.129 Y98.437 E2.21683
G1 X88.114 Y98.270 E2.21946
G1 X88.067 Y98.160 E2.22135
G1 X87.995 Y98.070 E2.22316
G1 X87.913 Y98.015 E2.22472
G1 X87.809 Y97.983 E2.22643
G1 X87.678 Y97.980 E2.22849
G1 X87.455 Y98.037 E2.23212
G1 X86.946 Y98.351 E2.24152
G1 X86.804 Y98.406 E2.24393
G1 X86.618 Y98.424 E2.24687
G1 X86.428 Y98.362 E2.25002
G1 X86.233 Y98.209 E2.25392
G1 X86.093 Y98.015 E2.25768
G1 X86.012 Y97.794 E2.26138
G1 X86.004 Y97.578 E2.26479
G1 X86.099 Y97.334 E2.26891
G1 X86.250 Y97.157 E2.27258
G1 X86.456 Y97.001 E2.27663
G1 X86.640 Y96.899 E2.27995
G1 X86.937 Y96.782 E2.28496
G1 X87.265 Y96.708 E2.29025
G1 X87.572 Y96.675 E2.29512
G1 X87.986 Y96.676 E2.30164
G1 X88.267 Y96.706 E2.30609
G1 X88.592 Y96.776 E2.31132
G1 X88.796 Y96.849 E2.31472
G1 X89.056 Y96.989 E2.31937
G1 X89.214 Y97.111 E2.32251
G1 X89.408 Y97.320 E2.32700
G1 X89.554 Y97.559 E2.33142
G1 X89.651 Y97.890 E2.33684
G1 X89.669 Y98.185 E2.34149
G1 X89.633 Y98.675 E2.34922
G1 X89.545 Y98.998 E2.35449
G1 X89.421 Y99.199 E2.35820
G1 X89.248 Y99.357 E2.36190
G1 X88.975 Y99.511 E2.36683
G1 X89.225 Y99.617 E2.37111
G1 X89.359 Y99.705 E2.37363
G1 X89.513 Y99.866 E2.37713
G1 X89.633 Y100.070 E2.38086
G1 X89.743 Y100.380 E2.38603
G1 X89.863 Y100.811 E2.39307
G1 X89.901 Y101.068 E2.39717
G1 X89.909 Y101.128 F7800.000
G1 E0.39717 F2400.00000
G92 E0
G1 X85.217 Y97.955 F7800.000
G1 E2.00000 F2400.00000
G1 F600.000
G1 X85.020 Y98.105 E2.00391
G1 X84.810 Y98.171 E2.00737
G1 X84.484 Y98.205 E2.01252
G1 X83.556 Y98.190 E2.02714
G1 X83.444 Y98.226 E2.02899
G1 X83.426 Y98.451 E2.03254
G1 X83.443 Y102.363 E2.09412
G1 X83.398 Y102.610 E2.09807
G1 X83.311 Y102.811 E2.10150
G1 X83.167 Y102.974 E2.10493
G1 X82.983 Y103.074 E2.10823
G1 X82.695 Y103.113 E2.11281
G1 X82.387 Y103.044 E2.11777
G1 X82.180 Y102.893 E2.12180
G1 X82.104 Y102.763 E2.12418
G1 X82.060 Y102.575 E2.12722
G1 X82.099 Y101.929 E2.13741
G1 X82.082 Y99.145 E2.18121
G1 X82.118 Y98.581 E2.19011
G1 X82.093 Y98.406 E2.19290
G1 X82.054 Y98.331 E2.19422
G1 X81.985 Y98.262 E2.19576
G1 X81.801 Y98.183 E2.19891
G1 X81.543 Y98.170 E2.20298
G1 X80.819 Y98.245 E2.21443
G1 X80.612 Y98.208 E2.21774
G1 X80.441 Y98.111 E2.22083
G1 X80.308 Y97.953 E2.22409
G1 X80.224 Y97.751 E2.22753
G1 X80.194 Y97.521 E2.23119
G1 X80.228 Y97.294 E2.23481
G1 X80.323 Y97.090 E2.23834
G1 X80.470 Y96.935 E2.24170
G1 X80.630 Y96.850 E2.24456
G1 X80.834 Y96.813 E2.24782
G1 X81.484 Y96.856 E2.25807
G1 X84.793 Y96.845 E2.31014
G1 X84.943 Y96.870 E2.31254
G1 X85.109 Y96.944 E2.31540
G1 X85.216 Y97.041 E2.31767
G1 X85.312 Y97.215 E2.32080
G1 X85.359 Y97.504 E2.32541
G1 X85.318 Y97.766 E2.32959
G1 X85.246 Y97.902 E2.33201
G1 X85.217 Y97.955 F7800.000
G1 E0.33201 F2400.00000
G92 E0
G1 X79.544 Y97.927 F7800.000
G1 E2.00000 F2400.00000
G1 F600.000
G1 X79.519 Y98.075 E2.00237
G1 X79.433 Y98.270 E2.00571
G1 X79.330 Y98.404 E2.00837
G1 X79.157 Y98.536 E2.01179
G1 X78.952 Y98.599 E2.01517
G1 X78.742 Y98.587 E2.01848
G1 X78.515 Y98.515 E2.02223
G1 X77.825 Y98.125 E2.03471
G1 X77.673 Y98.080 E2.03720
G1 X77.546 Y98.069 E2.03921
G1 X77.259 Y98.101 E2.04375
G1 X77.047 Y98.173 E2.04728
G1 X76.854 Y98.280 E2.05075
G1 X76.696 Y98.414 E2.05400
G1 X76.524 Y98.646 E2.05855
G1 X76.420 Y98.871 E2.06245
G1 X76.339 Y99.147 E2.06698
G1 X76.286 Y99.483 E2.07234
G1 X76.262 Y99.921 E2.07924
G1 X76.281 Y100.399 E2.08676
G1 X76.331 Y100.747 E2.09230
G1 X76.414 Y101.046 E2.09718
G1 X76.525 Y101.288 E2.10137
G1 X76.698 Y101.517 E2.10590
G1 X76.916 Y101.687 E2.11024
G1 X77.193 Y101.808 E2.11501
G1 X77.420 Y101.855 E2.11865
G1 X77.735 Y101.854 E2.12361
G1 X78.058 Y101.772 E2.12885
G1 X78.167 Y101.704 E2.13088
G1 X78.332 Y101.510 E2.13487
G1 X78.438 Y101.431 E2.13696
G1 X78.568 Y101.372 E2.13920
G1 X78.776 Y101.337 E2.14253
G1 X79.008 Y101.364 E2.14621
G1 X79.291 Y101.492 E2.15109
G1 X79.492 Y101.701 E2.15565
G1 X79.577 Y101.977 E2.16020
G1 X79.499 Y102.248 E2.16464
G1 X79.303 Y102.570 E2.17057
